Mono Glyph Icons/misc/misc-unfilled/api.svg

<svg height="48" viewBox="0 -960 960 960" width="48" xmlns="http://www.w3.org/2000/svg"><path d="m480-351-129-129 129-129 129 129zm-85-337-99-99 118-117q14-14 31-20.5t35-6.5q18 0 35 6.5t31 20.5l118 117-99 99-85-85zm-221 392-118-118q-14-14-20.5-31t-6.5-35q0-18 6.5-35t20.5-31l118-118 98 99-85 85 85 85zm613 0-99-99 85-85-85-85 99-99 117 118q14 14 20.5 31t6.5 35q0 18-6.5 35t-20.5 31zm-373 240-118-118 99-98 85 85 85-85 99 98-118 118q-14 14-31 20.5t-35 6.5q-18 0-35-6.5t-31-20.5z"/></svg>

<svg xmlns="http://www.w3.org/2000/svg" height="48" viewBox="0 -960 960 960" width="48"><path d="M480-351 351-480l129-129 129 129-129 129Zm-85-337-99-99 118-117q14-14 31-20.5t35-6.5q18 0 35 6.5t31 20.5l118 117-99 99-85-85-85 85ZM174-296 56-414q-14-14-20.5-31T29-480q0-18 6.5-35T56-546l118-118 98 99-85 85 85 85-98 99Zm613 0-99-99 85-85-85-85 99-99 117 118q14 14 20.5 31t6.5 35q0 18-6.5 35T904-414L787-296ZM414-56 296-174l99-98 85 85 85-85 99 98L546-56q-14 14-31 20.5T480-29q-18 0-35-6.5T414-56Z"/></svg>
